X:148
T: Irish Air (An)
N: O'Farrell's Pocket Companion v.2 (Sky ed. p.77)
N: "Irish"
M: 6/8
R: jig
L: 1/8
Q: 200
K: G
B3 AGA|GAG GBd|efg dcB|cAA AGA|B3 AGA|
GAG GBd|efg dgd|A3 G3 :|
Bcd ddd|de=f e^fg| dcB BAG|F>GA ABc|
Bcd ddd|de=f e^fg| dcB BAG|AFA Hc3 :|
B3 AGA|GAG GBd|efg dcB|cAA AGA|B3 AGA|
GAG GBd|efg dgd|A3 G3 :|
